X: 1471
T: George Blackman's Untitled Waltz
B: australian traditional tunes wiki
M:3/4
L:1/8
R: Waltz
Q: 1/4=100
K:G
V:1 
GA|"G"B2d>B GB|d3edB|"D"d6|A4B2|c2e>c Ac|e2f3e|"G"d6|B6|
"D"d2e2f2|"Em"g3ag2|"D"(3faf A3B| "C"c4ec|"G"B2d2B2|"D"B4[A2E2]|"G"G6-|G4"D"A2|
"G"(3BdB G2B2|d3edB|"D"c2A3B|c2e2fe|"G"(3dgd B3c|d4g2|"D"f2e2d2|
"C"e6|e2"G"d3B|d6|"D"d2A3B|(3cec F3A|"G"G6-|G4z2||
% abcbook-tune_id 6342d53a70528f7b38ab191a


% abcbook-boost 0
% abcbook-tablature 
% abcbook-transpose 
% abcbook-lastupdated 1665324366760
% abcbook-soundfonts 
% abcbook-repeats 1
% NFF Book 2009

